src/categories-icons-sprite/categories/svg-cat-cosmetics-hair.svg

<svg width="25" height="40" viewBox="0 0 25 40" fill="none" xmlns="http://www.w3.org/2000/svg">
<path class="p-FFDAEE" d="M11.2587 39.9997H0V36.2468C0 35.2104 0.840086 34.3704 1.87645 34.3704H9.38224C10.4186 34.3704 11.2587 35.2104 11.2587 36.2468V39.9997Z" fill="#B9DFFC"/>
<path class="p-FF7CB9" d="M9.1604 17.1354H1.96289V12.5552H9.1604V17.1354Z" fill="#58ADE5"/>
<path class="p-FF5E95" d="M9.3818 12.5552H5.62891V17.3572H9.3818V12.5552Z" fill="#76B7E2"/>
<path class="p-FFDAEE" d="M9.38224 21.1103H1.87645C0.840086 21.1103 0 20.2702 0 19.2339V15.481H11.2587V19.2339C11.2587 20.2702 10.4186 21.1103 9.38224 21.1103Z" fill="#B9DFFC"/>
<path class="p-FCB9D1" d="M5.62891 21.1103H9.3818C10.4182 21.1103 11.2583 20.2702 11.2583 19.2339V15.481H5.62891V21.1103Z" fill="#A1D1FD"/>
<path class="p-FF5E95" d="M11.2587 36.247H0V19.2339H11.2587V36.247Z" fill="#58ADE5"/>
<path class="p-FFDAEE" d="M24.3935 39.9997H13.1348V36.2468C13.1348 35.2104 13.9749 34.3704 15.0112 34.3704H22.517C23.5534 34.3704 24.3935 35.2104 24.3935 36.2468V39.9997Z" fill="#B9DFFC"/>
<path class="p-FF5E95" d="M24.3935 17.3573H13.1348V9.93799H24.3935V17.3573Z" fill="#58ADE5"/>
<path class="p-CE0963" d="M24.394 9.93799H18.7646V17.3573H24.394V9.93799Z" fill="#4D98CB"/>
<path class="p-FFDAEE" d="M22.517 21.1103H15.0112C13.9749 21.1103 13.1348 20.2702 13.1348 19.2339V15.481H24.3935V19.2339C24.3935 20.2702 23.5534 21.1103 22.517 21.1103Z" fill="#B9DFFC"/>
<path class="p-FF5E95" d="M24.3935 36.247H13.1348V19.2339H24.3935V36.247Z" fill="#58ADE5"/>
<path class="p-FCB9D1" d="M18.7646 39.9997H24.394V36.2468C24.394 35.2104 23.5539 34.3704 22.5175 34.3704H18.7646V39.9997Z" fill="#A1D1FD"/>
<path class="p-FCB9D1" d="M18.7646 21.1103H22.5175C23.5539 21.1103 24.394 20.2702 24.394 19.2339V15.481H18.7646V21.1103Z" fill="#A1D1FD"/>
<path class="p-CE0963" d="M24.394 19.2339H18.7646V36.247H24.394V19.2339Z" fill="#4D98CB"/>
<path class="p-FCB9D1" d="M5.62891 39.9997H11.2583V36.2468C11.2583 35.2104 10.4182 34.3704 9.3818 34.3704H5.62891V39.9997Z" fill="#A1D1FD"/>
<path class="p-CE0963" d="M11.2583 19.2339H5.62891V36.247H11.2583V19.2339Z" fill="#4D98CB"/>
<path class="p-E0F4FF" d="M6.91258 7.98628C5.59138 7.98628 4.5166 6.9115 4.5166 5.59031C4.5166 4.26912 5.59138 3.19434 6.91258 3.19434C8.23377 3.19434 9.30855 4.26912 9.30855 5.59031C9.30855 6.9115 8.23377 7.98628 6.91258 7.98628Z" fill="#E0F4FF"/>
<path class="p-BBDCFF" d="M19.7973 4.79195C18.4761 4.79195 17.4014 3.71717 17.4014 2.39597C17.4014 1.07478 18.4761 0 19.7973 0C21.1185 0 22.1933 1.07478 22.1933 2.39597C22.1933 3.71717 21.1185 4.79195 19.7973 4.79195Z" fill="#BBDCFF"/>
<path class="p-E0F4FF" d="M11.7576 3.19448C12.1987 3.19448 12.5563 2.83691 12.5563 2.39583C12.5563 1.95474 12.1987 1.59717 11.7576 1.59717C11.3166 1.59717 10.959 1.95474 10.959 2.39583C10.959 2.83691 11.3166 3.19448 11.7576 3.19448Z" fill="#E0F4FF"/>
<path class="p-BBDCFF" d="M16.6024 7.98648C17.0435 7.98648 17.401 7.6289 17.401 7.18782C17.401 6.74673 17.0435 6.38916 16.6024 6.38916C16.1613 6.38916 15.8037 6.74673 15.8037 7.18782C15.8037 7.6289 16.1613 7.98648 16.6024 7.98648Z" fill="#BBDCFF"/>
</svg>

<svg width="25" height="40" fill="none" xmlns="http://www.w3.org/2000/svg"><path class="p-FFDAEE" d="M11.259 40H0v-3.753c0-1.037.84-1.877 1.876-1.877h7.506c1.037 0 1.877.84 1.877 1.877V40z" fill="#B9DFFC"/><path class="p-FF7CB9" d="M9.16 17.135H1.963v-4.58H9.16v4.58z" fill="#58ADE5"/><path class="p-FF5E95" d="M9.382 12.555H5.629v4.802h3.753v-4.802z" fill="#76B7E2"/><path class="p-FFDAEE" d="M9.382 21.11H1.876A1.876 1.876 0 010 19.234V15.48h11.259v3.753c0 1.036-.84 1.876-1.877 1.876z" fill="#B9DFFC"/><path class="p-FCB9D1" d="M5.629 21.11h3.753c1.036 0 1.876-.84 1.876-1.876V15.48h-5.63v5.63z" fill="#A1D1FD"/><path class="p-FF5E95" d="M11.259 36.247H0V19.234h11.259v17.013z" fill="#58ADE5"/><path class="p-FFDAEE" d="M24.393 40H13.136v-3.753c0-1.037.84-1.877 1.876-1.877h7.506c1.036 0 1.877.84 1.877 1.877V40z" fill="#B9DFFC"/><path class="p-FF5E95" d="M24.393 17.357H13.136V9.938h11.258v7.42z" fill="#58ADE5"/><path class="p-CE0963" d="M24.394 9.938h-5.63v7.42h5.63v-7.42z" fill="#4D98CB"/><path class="p-FFDAEE" d="M22.517 21.11h-7.506a1.876 1.876 0 01-1.876-1.876V15.48h11.258v3.753c0 1.036-.84 1.876-1.876 1.876z" fill="#B9DFFC"/><path class="p-FF5E95" d="M24.393 36.247H13.136V19.234h11.258v17.013z" fill="#58ADE5"/><path class="p-FCB9D1" d="M18.765 40h5.629v-3.753c0-1.037-.84-1.877-1.877-1.877h-3.752V40zM18.765 21.11h3.752c1.037 0 1.877-.84 1.877-1.876V15.48h-5.63v5.63z" fill="#A1D1FD"/><path class="p-CE0963" d="M24.394 19.234h-5.63v17.013h5.63V19.234z" fill="#4D98CB"/><path class="p-FCB9D1" d="M5.629 40h5.63v-3.753c0-1.037-.84-1.877-1.877-1.877H5.629V40z" fill="#A1D1FD"/><path class="p-CE0963" d="M11.258 19.234h-5.63v17.013h5.63V19.234z" fill="#4D98CB"/><path class="p-E0F4FF" d="M6.913 7.986A2.399 2.399 0 014.517 5.59a2.399 2.399 0 012.396-2.396A2.399 2.399 0 019.309 5.59a2.399 2.399 0 01-2.396 2.396z" fill="#E0F4FF"/><path class="p-BBDCFF" d="M19.797 4.792a2.399 2.399 0 01-2.396-2.396A2.399 2.399 0 0119.797 0a2.399 2.399 0 012.396 2.396 2.399 2.399 0 01-2.396 2.396z" fill="#BBDCFF"/><path class="p-E0F4FF" d="M11.758 3.194a.799.799 0 100-1.597.799.799 0 000 1.597z" fill="#E0F4FF"/><path class="p-BBDCFF" d="M16.602 7.986a.799.799 0 100-1.597.799.799 0 000 1.597z" fill="#BBDCFF"/></svg>
